!!!SOCIAL_FUNCTION:	songs connected with the treatment of the sick
!!!PDT:	1932
!!!OTL: No_63_Song_During_Treatment_of_the_Sick_(a).krn
!!!REG: Wisconsin
!!!LANG: Non-Tone
!!!LING_GROUP: Algonquin
**kern
*staff1
=1-
=
*clefF4
*k[f#c#g#d#]
*M2/4
8B\L
16B\L
16B\JJ
8.B\L
16B\Jk
=2
8.B\L
16F#\Jk
8F#\
8r
=3
8A\L
16F#\L
16F#\JJ
(8.F#\L
16E\Jk)
=4
8.E/L
16BB/Jk
8BB/
8r
=5
8.E\L
16E\Jk
8.E\L
16E\Jk
=6
4.E\
8r
=7
8.G#\L
16F#\Jk
8.F#\L
16E\Jk
=8||
*M3/4
12E\L
12D#\
12C#\J
8.BB/L
16BB/Jk
8BB/
8r
=9
8BB/L
16BB/L
16BB/JJ
8.BB/L
16BB/Jk
8.BB/L
16BB/Jk
=10
2.BB/
==:|!
*-
